; generated by PrusaSlicer 2.5.2+MacOS-x64 on 2023-05-05 at 02:37:42 UTC


;
;

;
;
; 

; external perimeters extrusion width = 0.60mm
; perimeters extrusion width = 0.50mm
; infill extrusion width = 0.50mm
; solid infill extrusion width = 0.50mm
; top infill extrusion width = 0.40mm
; first layer extrusion width = 0.42mm

M73 P0 R124
M107
;TYPE:Custom
G90 ; use absolute coordinates
M83 ; extruder relative mode
M204 S1250 T1250
M104 S215 ; set extruder temp
M140 S60 ; set bed temp
G28 ; home all
G1 Y1.0 Z0.3 F1000 ; move print head up
M190 S60 ; wait for bed temp
M109 S215 ; wait for extruder temp
G92 E0.0
; initial load
G1 X205.0 E19 F1000
G1 Y1.6
G1 X5.0 E19 F1000
G92 E0.0
; intro line
G1 Y2.0 Z0.2 F1000
G1 X65.0 E9.0 F1000
G1 X105.0 E12.5 F1000
G92 E0.0
G21 ; set units to millimeters
G90 ; use absolute coordinates
M83 ; use relative distances for extrusion
; Filament gcode
M107
;LAYER_CHANGE
;Z:0.2
;HEIGHT:0.2
;BEFORE_LAYER_CHANGE
G92 E0.0
;0.2
G1 E-6 F2400
G1 Z.075 F10800
G1 Z.2
;AFTER_LAYER_CHANGE
;0.2
G1 Z.275
G1 X41.433 Y61.058
G1 Z.2
G1 E6 F3000
M204 S800
;TYPE:Skirt/Brim
;WIDTH:0.42
G1 F1200
G1 X42.338 Y60.523 E.03296
G1 X43.221 Y60.173 E.02978
G1 X44.247 Y59.944 E.03297
G1 X45.12 Y59.883 E.02744
G1 X164.955 Y59.884 E3.75733
G1 X166.148 Y60.011 E.03763
G1 X167.297 Y60.359 E.03763
G1 X168.359 Y60.917 E.03763
G1 X169.299 Y61.663 E.03763
G1 X170.082 Y62.573 E.03763
G1 X170.681 Y63.613 E.03763
G1 X171.07 Y64.73 E.03708
G1 X171.248 Y65.934 E.03818
G1 X171.248 Y144.063 E2.44966
G1 X170.968 Y145.634 E.05006
G1 X170.431 Y146.877 E.04245
G1 X169.579 Y148.05 E.04546
G1 X168.567 Y148.942 E.04229
G1 X167.662 Y149.477 E.03296
G1 X166.779 Y149.827 E.02978
G1 X165.753 Y150.056 E.03297
G1 X164.88 Y150.117 E.02744
G1 X45.12 Y150.117 E3.75499
G1 X43.607 Y149.934 E.04779
M73 P0 R123
G1 X42.842 Y149.696 E.02511
G1 X42.114 Y149.363 E.02511
G1 X41.433 Y148.942 E.02511
G1 X40.81 Y148.439 E.02511
G1 X39.918 Y147.427 E.04229
G1 X39.383 Y146.522 E.03297
G1 X39.033 Y145.639 E.02978
G1 X38.804 Y144.613 E.03297
G1 X38.743 Y143.751 E.0271
G1 X38.744 Y66.185 E2.43201
G1 X38.962 Y64.607 E.04996
G1 X39.496 Y63.256 E.04556
G1 X40.255 Y62.138 E.04235
G1 X40.81 Y61.561 E.02511
G1 X41.386 Y61.096 E.02323
M204 S1000
; printing object Optogenetic-Box.stl id:0 copy 0
G1 E-3.6 F2400
;WIPE_START
G1 F8640
G1 X42.338 Y60.523 E-.29311
G1 X43.221 Y60.173 E-.25062
G1 X44.247 Y59.944 E-.27746
G1 X45.12 Y59.883 E-.23098
G1 X49.773 Y59.883 E-1.22783
;WIPE_END
G1 E-.12 F2400
G1 Z.275 F10800
G1 X43.116 Y63.526
G1 Z.2
G1 E6 F3000
M204 S800
;TYPE:Perimeter
;WIDTH:0.419999
G1 F1200
G1 X43.392 Y63.338 E.01048
G1 X43.892 Y63.084 E.01758
G1 X44.475 Y62.91 E.01908
G1 X45.147 Y62.847 E.02116
G1 X164.683 Y62.847 E3.74796
G1 X165.122 Y62.863 E.01377
G1 X165.72 Y62.954 E.01896
G1 X166.332 Y63.174 E.02041
G1 X166.885 Y63.501 E.02013
G1 X167.366 Y63.926 E.02013
G1 X167.76 Y64.433 E.02013
G1 X168.051 Y65.005 E.02013
G1 X168.23 Y65.621 E.02012
G1 X168.293 Y66.287 E.02098
G1 X168.293 Y143.61 E2.42442
G1 X168.265 Y144.168 E.01749
G1 X168.127 Y144.766 E.01925
G1 X167.862 Y145.367 E.02061
G1 X167.509 Y145.915 E.02042
G1 X167.072 Y146.346 E.01925
G1 X166.608 Y146.662 E.01759
G1 X166.108 Y146.916 E.01758
G1 X165.525 Y147.09 E.01908
G1 X164.853 Y147.153 E.02116
G1 X45.317 Y147.153 E3.74795
G1 X44.878 Y147.137 E.01378
G1 X44.28 Y147.046 E.01895
G1 X43.657 Y146.822 E.02077
G1 X43.11 Y146.488 E.0201
G1 X42.633 Y146.076 E.01977
G1 X42.26 Y145.588 E.01925
G1 X41.955 Y144.975 E.02148
G1 X41.771 Y144.388 E.01927
G1 X41.707 Y143.713 E.02126
G1 X41.707 Y66.278 E2.4279
G1 X41.735 Y65.832 E.01401
M73 P1 R123
G1 X41.873 Y65.234 E.01925
G1 X42.138 Y64.633 E.02061
G1 X42.491 Y64.085 E.02042
G1 X42.928 Y63.654 E.01925
G1 X43.066 Y63.56 E.00524
M204 S1000
G1 X42.89 Y63.196 F10800
M204 S800
;TYPE:External perimeter
G1 F1200
G1 X43.283 Y62.964 E.01431
G1 X43.753 Y62.733 E.01641
G1 X44.41 Y62.538 E.0215
G1 X45.129 Y62.47 E.02265
G1 X164.683 Y62.47 E3.74851
G1 X165.145 Y62.487 E.01451
G1 X165.82 Y62.589 E.02138
G1 X166.493 Y62.831 E.02245
G1 X167.107 Y63.195 E.02237
G1 X167.642 Y63.666 E.02236
G1 X168.079 Y64.23 E.02236
G1 X168.403 Y64.865 E.02236
G1 X168.602 Y65.55 E.02235
G1 X168.67 Y66.269 E.02265
G1 X168.67 Y143.543 E2.42287
G1 X168.656 Y143.948 E.0127
G1 X168.59 Y144.476 E.01668
G1 X168.404 Y145.132 E.02138
G1 X168.078 Y145.773 E.02254
G1 X167.618 Y146.349 E.02313
G1 X167.11 Y146.804 E.02138
G1 X166.717 Y147.036 E.01431
G1 X166.247 Y147.267 E.01641
G1 X165.59 Y147.462 E.0215
G1 X164.871 Y147.53 E.02265
G1 X45.317 Y147.53 E3.74851
G1 X44.854 Y147.513 E.01452
G1 X44.181 Y147.411 E.02137
G1 X43.501 Y147.166 E.02263
G1 X42.92 Y146.817 E.02126
G1 X42.531 Y146.497 E.01581
G1 X42.188 Y146.129 E.01575
G1 X41.801 Y145.568 E.02138
G1 X41.609 Y145.124 E.01516
G1 X41.398 Y144.453 E.02206
G1 X41.33 Y143.731 E.02275
G1 X41.33 Y66.267 E2.42883
G1 X41.41 Y65.524 E.02342
G1 X41.596 Y64.868 E.02138
G1 X41.922 Y64.227 E.02254
G1 X42.382 Y63.651 E.02313
G1 X42.846 Y63.236 E.0195
M204 S1000
G1 X43.256 Y63.359 F10800
G1 E-3.6 F2400
;WIPE_START
G1 F8640
G1 X43.283 Y62.964 E-.13599
G1 X43.753 Y62.733 E-.1381
G1 X44.41 Y62.538 E-.18091
G1 X45.129 Y62.47 E-.19063
G1 X51.323 Y62.47 E-1.63438
;WIPE_END
G1 E-.12 F2400
G1 Z.275 F10800
G1 X165.541 Y63.035
G1 Z.2
G1 E6 F3000
M204 S800
;TYPE:Solid infill
;WIDTH:0.420438
G1 F1200
G1 X167.857 Y65.351 E.10284
G1 X167.951 Y65.674 E.01056
G1 X167.983 Y66.011 E.01061
G1 X165.119 Y63.147 E.12715
G1 X164.568 Y63.13 E.01729
G1 X168.01 Y66.572 E.1528
G1 X168.01 Y67.106 E.01676
G1 X164.034 Y63.13 E.1765
G1 X163.5 Y63.13 E.01676
G1 X168.01 Y67.64 E.20021
G1 X168.01 Y68.174 E.01676
G1 X162.966 Y63.13 E.22391
G1 X162.433 Y63.13 E.01676
G1 X168.01 Y68.708 E.24761
G1 X168.01 Y69.241 E.01676
G1 X161.899 Y63.13 E.27131
G1 X161.365 Y63.13 E.01676
G1 X168.01 Y69.775 E.29501
G1 X168.01 Y70.309 E.01676
G1 X160.831 Y63.13 E.31871
G1 X160.297 Y63.13 E.01676
G1 X168.01 Y70.843 E.34241
G1 X168.01 Y71.377 E.01676
G1 X159.763 Y63.13 E.36611
G1 X159.229 Y63.13 E.01676
G1 X168.01 Y71.911 E.38982
G1 X168.01 Y72.445 E.01676
G1 X158.695 Y63.13 E.41352
G1 X158.161 Y63.13 E.01676
G1 X168.01 Y72.979 E.43722
G1 X168.01 Y73.513 E.01676
G1 X157.627 Y63.13 E.46092
G1 X157.094 Y63.13 E.01676
G1 X168.01 Y74.047 E.48462
G1 X168.01 Y74.58 E.01676
G1 X156.56 Y63.13 E.50832
G1 X156.026 Y63.13 E.01676
M73 P1 R122
G1 X168.01 Y75.114 E.53202
G1 X168.01 Y75.648 E.01676
G1 X155.492 Y63.13 E.55572
G1 X154.958 Y63.13 E.01676
G1 X168.01 Y76.182 E.57942
G1 X168.01 Y76.716 E.01676
G1 X154.424 Y63.13 E.60313
G1 X153.89 Y63.13 E.01676
G1 X168.01 Y77.25 E.62683
G1 X168.01 Y77.784 E.01676
G1 X153.356 Y63.13 E.65053
G1 X152.822 Y63.13 E.01676
G1 X168.01 Y78.318 E.67423
G1 X168.01 Y78.852 E.01676
G1 X152.289 Y63.13 E.69793
G1 X151.755 Y63.13 E.01676
G1 X168.01 Y79.385 E.72163
G1 X168.01 Y79.919 E.01676
G1 X151.221 Y63.13 E.74533
G1 X150.687 Y63.13 E.01676
G1 X168.01 Y80.453 E.76903
G1 X168.01 Y80.987 E.01676
G1 X150.153 Y63.13 E.79274
G1 X149.619 Y63.13 E.01676
G1 X168.01 Y81.521 E.81644
G1 X168.01 Y82.055 E.01676
G1 X149.085 Y63.13 E.84014
G1 X148.551 Y63.13 E.01676
G1 X168.01 Y82.589 E.86384
G1 X168.01 Y83.123 E.01676
G1 X148.017 Y63.13 E.88754
G1 X147.484 Y63.13 E.01676
G1 X168.01 Y83.657 E.91124
G1 X168.01 Y84.19 E.01676
G1 X146.95 Y63.13 E.93494
G1 X146.416 Y63.13 E.01676
G1 X168.01 Y84.724 E.95864
G1 X168.01 Y85.258 E.01676
G1 X145.882 Y63.13 E.98234
G1 X145.348 Y63.13 E.01676
G1 X168.01 Y85.792 E1.00605
G1 X168.01 Y86.326 E.01676
G1 X144.814 Y63.13 E1.02975
G1 X144.28 Y63.13 E.01676
G1 X168.01 Y86.86 E1.05345
G1 X168.01 Y87.394 E.01676
G1 X143.746 Y63.13 E1.07715
G1 X143.212 Y63.13 E.01676
G1 X168.01 Y87.928 E1.10085
G1 X168.01 Y88.462 E.01676
G1 X142.679 Y63.13 E1.12455
G1 X142.145 Y63.13 E.01676
G1 X168.01 Y88.995 E1.14825
G1 X168.01 Y89.529 E.01676
G1 X141.611 Y63.13 E1.17195
G1 X141.077 Y63.13 E.01676
G1 X168.01 Y90.063 E1.19565
G1 X168.01 Y90.597 E.01676
G1 X140.543 Y63.13 E1.21936
G1 X140.009 Y63.13 E.01676
M73 P2 R122
G1 X168.01 Y91.131 E1.24306
G1 X168.01 Y91.665 E.01676
G1 X139.475 Y63.13 E1.26676
G1 X138.941 Y63.13 E.01676
G1 X168.01 Y92.199 E1.29046
G1 X168.01 Y92.733 E.01676
G1 X138.407 Y63.13 E1.31416
G1 X137.873 Y63.13 E.01676
G1 X168.01 Y93.267 E1.33786
G1 X168.01 Y93.8 E.01676
G1 X137.34 Y63.13 E1.36156
G1 X136.806 Y63.13 E.01676
G1 X168.01 Y94.334 E1.38526
G1 X168.01 Y94.868 E.01676
G1 X136.272 Y63.13 E1.40897
G1 X135.738 Y63.13 E.01676
M73 P2 R121
G1 X168.01 Y95.402 E1.43267
G1 X168.01 Y95.936 E.01676
G1 X135.204 Y63.13 E1.45637
G1 X134.67 Y63.13 E.01676
G1 X168.01 Y96.47 E1.48007
G1 X168.01 Y97.004 E.01676
G1 X134.136 Y63.13 E1.50377
G1 X133.602 Y63.13 E.01676
G1 X168.01 Y97.538 E1.52747
G1 X168.01 Y98.072 E.01676
G1 X133.068 Y63.13 E1.55117
G1 X132.535 Y63.13 E.01676
G1 X168.01 Y98.605 E1.57487
G1 X168.01 Y99.139 E.01676
G1 X132.001 Y63.13 E1.59857
G1 X131.467 Y63.13 E.01676
G1 X168.01 Y99.673 E1.62228
G1 X168.01 Y100.207 E.01676
G1 X130.933 Y63.13 E1.64598
G1 X130.399 Y63.13 E.01676
G1 X168.01 Y100.741 E1.66968
G1 X168.01 Y101.275 E.01676
G1 X129.865 Y63.13 E1.69338
G1 X129.331 Y63.13 E.01676
G1 X168.01 Y101.809 E1.71708
G1 X168.01 Y102.343 E.01676
G1 X128.797 Y63.13 E1.74078
G1 X128.263 Y63.13 E.01676
G1 X168.01 Y102.877 E1.76448
G1 X168.01 Y103.411 E.01676
G1 X127.73 Y63.13 E1.78818
G1 X127.196 Y63.13 E.01676
G1 X168.01 Y103.944 E1.81189
G1 X168.01 Y104.478 E.01676
G1 X126.662 Y63.13 E1.83559
G1 X126.128 Y63.13 E.01676
G1 X168.01 Y105.012 E1.85929
G1 X168.01 Y105.546 E.01676
G1 X125.594 Y63.13 E1.88299
G1 X125.06 Y63.13 E.01676
G1 X168.01 Y106.08 E1.90669
G1 X168.01 Y106.614 E.01676
G1 X124.526 Y63.13 E1.93039
G1 X123.992 Y63.13 E.01676
M73 P3 R121
G1 X168.01 Y107.148 E1.95409
G1 X168.01 Y107.682 E.01676
M73 P3 R120
G1 X123.458 Y63.13 E1.97779
G1 X122.925 Y63.13 E.01676
G1 X168.01 Y108.216 E2.00149
G1 X168.01 Y108.749 E.01676
G1 X122.391 Y63.13 E2.0252
G1 X121.857 Y63.13 E.01676
G1 X168.01 Y109.283 E2.0489
G1 X168.01 Y109.817 E.01676
G1 X121.323 Y63.13 E2.0726
G1 X120.789 Y63.13 E.01676
G1 X168.01 Y110.351 E2.0963
G1 X168.01 Y110.885 E.01676
G1 X120.255 Y63.13 E2.12
G1 X119.721 Y63.13 E.01676
G1 X168.01 Y111.419 E2.1437
G1 X168.01 Y111.953 E.01676
G1 X119.187 Y63.13 E2.1674
G1 X118.653 Y63.13 E.01676
G1 X168.01 Y112.487 E2.1911
G1 X168.01 Y113.021 E.01676
G1 X118.12 Y63.13 E2.21481
G1 X117.586 Y63.13 E.01676
G1 X168.01 Y113.554 E2.23851
G1 X168.01 Y114.088 E.01676
G1 X117.052 Y63.13 E2.26221
G1 X116.518 Y63.13 E.01676
G1 X168.01 Y114.622 E2.28591
G1 X168.01 Y115.156 E.01676
G1 X115.984 Y63.13 E2.30961
G1 X115.45 Y63.13 E.01676
G1 X168.01 Y115.69 E2.33331
G1 X168.01 Y116.224 E.01676
G1 X114.916 Y63.13 E2.35701
G1 X114.382 Y63.13 E.01676
M73 P3 R119
G1 X168.01 Y116.758 E2.38071
G1 X168.01 Y117.292 E.01676
G1 X113.848 Y63.13 E2.40441
G1 X113.314 Y63.13 E.01676
G1 X168.01 Y117.826 E2.42812
G1 X168.01 Y118.359 E.01676
M73 P4 R119
G1 X112.781 Y63.13 E2.45182
G1 X112.247 Y63.13 E.01676
G1 X168.01 Y118.893 E2.47552
G1 X168.01 Y119.427 E.01676
G1 X111.713 Y63.13 E2.49922
G1 X111.179 Y63.13 E.01676
G1 X168.01 Y119.961 E2.52292
G1 X168.01 Y120.495 E.01676
G1 X110.645 Y63.13 E2.54662
G1 X110.111 Y63.13 E.01676
G1 X168.01 Y121.029 E2.57032
G1 X168.01 Y121.563 E.01676
G1 X109.577 Y63.13 E2.59402
G1 X109.043 Y63.13 E.01676
G1 X168.01 Y122.097 E2.61772
G1 X168.01 Y122.631 E.01676
G1 X108.509 Y63.13 E2.64143
G1 X107.976 Y63.13 E.01676
G1 X168.01 Y123.164 E2.66513
G1 X168.01 Y123.698 E.01676
G1 X107.442 Y63.13 E2.68883
G1 X106.908 Y63.13 E.01676
G1 X168.01 Y124.232 E2.71253
G1 X168.01 Y124.766 E.01676
M73 P4 R118
G1 X106.374 Y63.13 E2.73623
G1 X105.84 Y63.13 E.01676
G1 X168.01 Y125.3 E2.75993
G1 X168.01 Y125.834 E.01676
G1 X105.306 Y63.13 E2.78363
G1 X104.772 Y63.13 E.01676
G1 X168.01 Y126.368 E2.80733
G1 X168.01 Y126.902 E.01676
G1 X104.238 Y63.13 E2.83104
G1 X103.704 Y63.13 E.01676
G1 X168.01 Y127.436 E2.85474
G1 X168.01 Y127.97 E.01676
M73 P5 R118
G1 X103.171 Y63.13 E2.87844
G1 X102.637 Y63.13 E.01676
G1 X168.01 Y128.503 E2.90214
G1 X168.01 Y129.037 E.01676
G1 X102.103 Y63.13 E2.92584
G1 X101.569 Y63.13 E.01676
G1 X168.01 Y129.571 E2.94954
G1 X168.01 Y130.105 E.01676
G1 X101.035 Y63.13 E2.97324
G1 X100.501 Y63.13 E.01676
G1 X168.01 Y130.639 E2.99694
G1 X168.01 Y131.173 E.01676
G1 X99.967 Y63.13 E3.02064
G1 X99.433 Y63.13 E.01676
M73 P5 R117
G1 X168.01 Y131.707 E3.04435
G1 X168.01 Y132.241 E.01676
G1 X98.899 Y63.13 E3.06805
G1 X98.366 Y63.13 E.01676
G1 X168.01 Y132.775 E3.09175
G1 X168.01 Y133.308 E.01676
G1 X97.832 Y63.13 E3.11545
G1 X97.298 Y63.13 E.01676
G1 X168.01 Y133.842 E3.13915
G1 X168.01 Y134.376 E.01676
G1 X96.764 Y63.13 E3.16285
G1 X96.23 Y63.13 E.01676
G1 X168.01 Y134.91 E3.18655
G1 X168.01 Y135.444 E.01676
G1 X95.696 Y63.13 E3.21025
G1 X95.162 Y63.13 E.01676
M73 P6 R117
G1 X168.01 Y135.978 E3.23396
G1 X168.01 Y136.512 E.01676
G1 X94.628 Y63.13 E3.25766
G1 X94.094 Y63.13 E.01676
G1 X168.01 Y137.046 E3.28136
G1 X168.01 Y137.58 E.01676
G1 X93.561 Y63.13 E3.30506
G1 X93.027 Y63.13 E.01676
M73 P6 R116
G1 X168.01 Y138.113 E3.32876
G1 X168.01 Y138.647 E.01676
G1 X92.493 Y63.13 E3.35246
G1 X91.959 Y63.13 E.01676
G1 X168.01 Y139.181 E3.37616
G1 X168.01 Y139.715 E.01676
G1 X91.425 Y63.13 E3.39986
G1 X90.891 Y63.13 E.01676
G1 X168.01 Y140.249 E3.42356
G1 X168.01 Y140.783 E.01676
G1 X90.357 Y63.13 E3.44727
G1 X89.823 Y63.13 E.01676
G1 X168.01 Y141.317 E3.47097
G1 X168.01 Y141.851 E.01676
G1 X89.289 Y63.13 E3.49467
G1 X88.755 Y63.13 E.01676
G1 X168.01 Y142.385 E3.51837
G1 X168.01 Y142.918 E.01676
G1 X88.222 Y63.13 E3.54207
G1 X87.688 Y63.13 E.01676
M73 P7 R116
G1 X168.01 Y143.452 E3.56577
G1 X167.994 Y143.97 E.01626
M73 P7 R115
G1 X87.154 Y63.13 E3.58875
G1 X86.62 Y63.13 E.01676
G1 X167.926 Y144.436 E3.60943
G1 X167.803 Y144.847 E.01347
G1 X86.086 Y63.13 E3.62769
G1 X85.552 Y63.13 E.01676
G1 X167.627 Y145.205 E3.64356
G1 X167.514 Y145.427 E.00783
G1 X167.43 Y145.542 E.00446
G1 X85.018 Y63.13 E3.65853
G1 X84.484 Y63.13 E.01676
G1 X167.193 Y145.838 E3.67169
G1 X166.923 Y146.102 E.01185
G1 X83.95 Y63.13 E3.68341
G1 X83.417 Y63.13 E.01676
G1 X166.616 Y146.329 E3.69349
G1 X166.281 Y146.528 E.01223
G1 X82.883 Y63.13 E3.7023
G1 X82.349 Y63.13 E.01676
G1 X165.909 Y146.69 E3.70952
G1 X165.491 Y146.806 E.01362
M73 P7 R114
G1 X81.815 Y63.13 E3.71466
G1 X81.281 Y63.13 E.01676
G1 X165.006 Y146.854 E3.7168
G1 X164.487 Y146.87 E.01628
M73 P8 R114
G1 X80.747 Y63.13 E3.7175
G1 X80.213 Y63.13 E.01676
G1 X163.953 Y146.87 E3.7175
G1 X163.42 Y146.87 E.01676
G1 X79.679 Y63.13 E3.7175
G1 X79.145 Y63.13 E.01676
G1 X162.886 Y146.87 E3.7175
G1 X162.352 Y146.87 E.01676
G1 X78.612 Y63.13 E3.7175
G1 X78.078 Y63.13 E.01676
G1 X161.818 Y146.87 E3.7175
G1 X161.284 Y146.87 E.01676
G1 X77.544 Y63.13 E3.7175
G1 X77.01 Y63.13 E.01676
G1 X160.75 Y146.87 E3.7175
G1 X160.216 Y146.87 E.01676
M73 P8 R113
G1 X76.476 Y63.13 E3.7175
G1 X75.942 Y63.13 E.01676
G1 X159.682 Y146.87 E3.7175
G1 X159.148 Y146.87 E.01676
G1 X75.408 Y63.13 E3.7175
G1 X74.874 Y63.13 E.01676
G1 X158.615 Y146.87 E3.7175
G1 X158.081 Y146.87 E.01676
M73 P9 R113
G1 X74.34 Y63.13 E3.7175
G1 X73.807 Y63.13 E.01676
G1 X157.547 Y146.87 E3.7175
G1 X157.013 Y146.87 E.01676
G1 X73.273 Y63.13 E3.7175
G1 X72.739 Y63.13 E.01676
G1 X156.479 Y146.87 E3.7175
G1 X155.945 Y146.87 E.01676
G1 X72.205 Y63.13 E3.7175
G1 X71.671 Y63.13 E.01676
G1 X155.411 Y146.87 E3.7175
G1 X154.877 Y146.87 E.01676
M73 P9 R112
G1 X71.137 Y63.13 E3.7175
G1 X70.603 Y63.13 E.01676
G1 X154.343 Y146.87 E3.7175
G1 X153.809 Y146.87 E.01676
G1 X70.069 Y63.13 E3.7175
G1 X69.535 Y63.13 E.01676
G1 X153.276 Y146.87 E3.7175
G1 X152.742 Y146.87 E.01676
G1 X69.001 Y63.13 E3.7175
G1 X68.468 Y63.13 E.01676
G1 X152.208 Y146.87 E3.7175
G1 X151.674 Y146.87 E.01676
G1 X67.934 Y63.13 E3.7175
G1 X67.4 Y63.13 E.01676
M73 P10 R112
G1 X151.14 Y146.87 E3.7175
G1 X150.606 Y146.87 E.01676
G1 X66.866 Y63.13 E3.7175
G1 X66.332 Y63.13 E.01676
G1 X150.072 Y146.87 E3.7175
G1 X149.538 Y146.87 E.01676
M73 P10 R111
G1 X65.798 Y63.13 E3.7175
G1 X65.264 Y63.13 E.01676
G1 X149.004 Y146.87 E3.7175
G1 X148.471 Y146.87 E.01676
G1 X64.73 Y63.13 E3.7175
