; generated by PrusaSlicer 2.5.2+MacOS-x64 on 2023-05-12 at 03:05:19 UTC


;
;

;
;
; 

; external perimeters extrusion width = 0.60mm
; perimeters extrusion width = 0.50mm
; infill extrusion width = 0.50mm
; solid infill extrusion width = 0.50mm
; top infill extrusion width = 0.40mm
; first layer extrusion width = 0.42mm

M73 P0 R132
M107
;TYPE:Custom
G90 ; use absolute coordinates
M83 ; extruder relative mode
M204 S1250 T1250
M104 S215 ; set extruder temp
M140 S60 ; set bed temp
G28 ; home all
G1 Y1.0 Z0.3 F1000 ; move print head up
M190 S60 ; wait for bed temp
M109 S215 ; wait for extruder temp
G92 E0.0
; initial load
G1 X205.0 E19 F1000
G1 Y1.6
G1 X5.0 E19 F1000
G92 E0.0
; intro line
G1 Y2.0 Z0.2 F1000
G1 X65.0 E9.0 F1000
G1 X105.0 E12.5 F1000
G92 E0.0
G21 ; set units to millimeters
G90 ; use absolute coordinates
M83 ; use relative distances for extrusion
; Filament gcode
M107
;LAYER_CHANGE
;Z:0.2
;HEIGHT:0.2
;BEFORE_LAYER_CHANGE
G92 E0.0
;0.2
G1 E-6 F2400
G1 Z.075 F10800
G1 Z.2
;AFTER_LAYER_CHANGE
;0.2
G1 Z.275
G1 X40.564 Y60.712
G1 Z.2
G1 E6 F3000
M204 S800
;TYPE:Skirt/Brim
;WIDTH:0.42
G1 F1200
G1 X41.526 Y60.19 E.03433
G1 X42.003 Y60.035 E.01572
G1 X43.238 Y59.887 E.039
G1 X167.443 Y59.929 E3.89437
G1 X167.936 Y60.023 E.01572
G1 X168.956 Y60.42 E.03433
G1 X169.459 Y60.74 E.01868
G1 X170.253 Y61.494 E.03433
G1 X170.548 Y61.899 E.01572
G1 X171.019 Y62.888 E.03433
G1 X171.168 Y63.465 E.01868
G1 X171.249 Y64.26 E.02507
G1 X171.249 Y145.74 E2.55475
G1 X171.168 Y146.535 E.02507
G1 X170.835 Y147.579 E.03433
G1 X170.253 Y148.506 E.03434
G1 X169.459 Y149.26 E.03433
G1 X168.502 Y149.793 E.03433
G1 X167.936 Y149.977 E.01868
G1 X166.998 Y150.113 E.02971
G1 X43.238 Y150.113 E3.88041
G1 X42.003 Y149.965 E.039
M73 P0 R131
G1 X40.987 Y149.557 E.03433
G1 X40.104 Y148.908 E.03434
G1 X39.411 Y148.061 E.03433
G1 X38.95 Y147.067 E.03433
G1 X38.752 Y145.997 E.03414
G1 X38.751 Y64.009 E2.57066
G1 X38.825 Y63.418 E.01868
G1 X39.17 Y62.379 E.03433
G1 X39.761 Y61.457 E.03433
G1 X40.52 Y60.753 E.03245
M204 S1000
; printing object Optogenetic-Box.stl id:0 copy 0
G1 E-3.6 F2400
;WIPE_START
G1 F8640
G1 X41.526 Y60.19 E-.30432
G1 X42.003 Y60.035 E-.1323
G1 X43.238 Y59.887 E-.3282
G1 X48.979 Y59.889 E-1.51518
;WIPE_END
G1 E-.12 F2400
G1 Z.275 F10800
G1 X42.214 Y63.175
G1 Z.2
G1 E6 F3000
M204 S800
;TYPE:Perimeter
;WIDTH:0.419999
G1 F1200
G1 X42.513 Y62.986 E.01107
G1 X42.848 Y62.877 E.01107
G1 X43.256 Y62.851 E.01281
G1 X166.81 Y62.852 E3.87393
G1 X167.307 Y62.921 E.01575
G1 X167.627 Y63.071 E.01107
G1 X167.899 Y63.296 E.01107
G1 X168.106 Y63.582 E.01107
G1 X168.236 Y63.91 E.01107
G1 X168.285 Y64.297 E.01224
G1 X168.285 Y145.606 E2.54938
G1 X168.236 Y146.09 E.01526
G1 X168.106 Y146.418 E.01107
G1 X167.899 Y146.704 E.01107
G1 X167.627 Y146.929 E.01107
G1 X167.307 Y147.079 E.01107
G1 X166.942 Y147.149 E.01165
G1 X43.306 Y147.149 E3.87652
G1 X42.848 Y147.123 E.01438
G1 X42.513 Y147.014 E.01107
G1 X42.214 Y146.825 E.01107
G1 X41.973 Y146.568 E.01107
G1 X41.803 Y146.258 E.01107
G1 X41.715 Y145.916 E.01107
G1 X41.715 Y64.084 E2.56581
G1 X41.803 Y63.742 E.01107
G1 X41.973 Y63.432 E.01107
G1 X42.173 Y63.219 E.00919
M204 S1000
G1 X41.972 Y62.882 F10800
M204 S800
;TYPE:External perimeter
G1 F1200
G1 X42.351 Y62.642 E.01406
G1 X42.777 Y62.503 E.01406
G1 X43.244 Y62.474 E.01468
G1 X166.81 Y62.475 E3.8743
G1 X167.425 Y62.559 E.01946
M73 P1 R131
G1 X167.83 Y62.75 E.01406
G1 X168.176 Y63.036 E.01406
G1 X168.439 Y63.398 E.01406
G1 X168.604 Y63.815 E.01406
G1 X168.662 Y64.273 E.01447
G1 X168.662 Y145.606 E2.55013
G1 X168.604 Y146.185 E.01824
G1 X168.439 Y146.602 E.01406
G1 X168.176 Y146.964 E.01406
G1 X167.83 Y147.25 E.01406
G1 X167.425 Y147.441 E.01406
G1 X166.978 Y147.526 E.01426
G1 X43.306 Y147.526 E3.87763
G1 X42.777 Y147.497 E.01662
G1 X42.351 Y147.358 E.01406
G1 X41.972 Y147.118 E.01406
G1 X41.665 Y146.791 E.01406
G1 X41.449 Y146.398 E.01406
G1 X41.338 Y145.964 E.01406
G1 X41.338 Y64.036 E2.5688
G1 X41.449 Y63.602 E.01406
G1 X41.665 Y63.209 E.01406
G1 X41.931 Y62.926 E.01217
M204 S1000
G1 X42.347 Y63.021 F10800
G1 E-3.6 F2400
;WIPE_START
G1 F8640
G1 X42.351 Y62.642 E-.13369
G1 X42.777 Y62.503 E-.1183
G1 X43.244 Y62.474 E-.12355
G1 X50.461 Y62.474 E-1.90447
;WIPE_END
G1 E-.12 F2400
G1 Z.275 F10800
G1 X168.172 Y64.505
G1 Z.2
G1 E6 F3000
M204 S800
;TYPE:Solid infill
;WIDTH:0.420788
G1 F1200
G1 X166.802 Y63.135 E.06088
G1 X166.267 Y63.135 E.01679
G1 X168.002 Y64.87 E.07709
G1 X168.002 Y65.404 E.01679
G1 X165.733 Y63.135 E.10083
G1 X165.199 Y63.135 E.01679
G1 X168.002 Y65.939 E.12458
G1 X168.002 Y66.473 E.01679
G1 X164.664 Y63.135 E.14832
G1 X164.13 Y63.135 E.01679
G1 X168.002 Y67.007 E.17207
G1 X168.002 Y67.542 E.01679
G1 X163.595 Y63.135 E.19581
G1 X163.061 Y63.135 E.01679
G1 X168.002 Y68.076 E.21956
G1 X168.002 Y68.611 E.01679
G1 X162.527 Y63.135 E.24331
G1 X161.992 Y63.135 E.01679
G1 X168.002 Y69.145 E.26705
G1 X168.002 Y69.679 E.01679
G1 X161.458 Y63.135 E.2908
G1 X160.923 Y63.135 E.01679
G1 X168.002 Y70.214 E.31454
G1 X168.002 Y70.748 E.01679
G1 X160.389 Y63.135 E.33829
G1 X159.855 Y63.135 E.01679
G1 X168.002 Y71.283 E.36203
G1 X168.002 Y71.817 E.01679
G1 X159.32 Y63.135 E.38578
G1 X158.786 Y63.135 E.01679
G1 X168.002 Y72.351 E.40952
G1 X168.002 Y72.886 E.01679
M73 P1 R130
G1 X158.251 Y63.135 E.43327
G1 X157.717 Y63.135 E.01679
G1 X168.002 Y73.42 E.45701
G1 X168.002 Y73.954 E.01679
G1 X157.183 Y63.135 E.48076
G1 X156.648 Y63.135 E.01679
G1 X168.002 Y74.489 E.5045
G1 X168.002 Y75.023 E.01679
G1 X156.114 Y63.135 E.52825
G1 X155.58 Y63.135 E.01679
G1 X168.002 Y75.558 E.55199
G1 X168.002 Y76.092 E.01679
G1 X155.045 Y63.135 E.57574
G1 X154.511 Y63.135 E.01679
G1 X168.002 Y76.626 E.59949
G1 X168.002 Y77.161 E.01679
G1 X153.976 Y63.135 E.62323
G1 X153.442 Y63.135 E.01679
G1 X168.002 Y77.695 E.64698
G1 X168.002 Y78.23 E.01679
G1 X152.908 Y63.135 E.67072
G1 X152.373 Y63.135 E.01679
G1 X168.002 Y78.764 E.69447
G1 X168.002 Y79.298 E.01679
G1 X151.839 Y63.135 E.71821
G1 X151.304 Y63.135 E.01679
G1 X168.002 Y79.833 E.74196
G1 X168.002 Y80.367 E.01679
G1 X150.77 Y63.135 E.7657
G1 X150.236 Y63.135 E.01679
G1 X168.002 Y80.901 E.78945
G1 X168.002 Y81.436 E.01679
G1 X149.701 Y63.135 E.81319
G1 X149.167 Y63.135 E.01679
G1 X168.002 Y81.97 E.83694
G1 X168.002 Y82.505 E.01679
G1 X148.632 Y63.135 E.86068
G1 X148.098 Y63.135 E.01679
G1 X168.002 Y83.039 E.88443
G1 X168.002 Y83.573 E.01679
G1 X147.564 Y63.135 E.90817
G1 X147.029 Y63.135 E.01679
G1 X168.002 Y84.108 E.93192
G1 X168.002 Y84.642 E.01679
G1 X146.495 Y63.135 E.95567
G1 X145.961 Y63.135 E.01679
G1 X168.002 Y85.177 E.97941
G1 X168.002 Y85.711 E.01679
G1 X145.426 Y63.135 E1.00316
G1 X144.892 Y63.135 E.01679
G1 X168.002 Y86.245 E1.0269
G1 X168.002 Y86.78 E.01679
G1 X144.357 Y63.135 E1.05065
G1 X143.823 Y63.135 E.01679
G1 X168.002 Y87.314 E1.07439
G1 X168.002 Y87.848 E.01679
G1 X143.289 Y63.135 E1.09814
G1 X142.754 Y63.135 E.01679
G1 X168.002 Y88.383 E1.12188
G1 X168.002 Y88.917 E.01679
G1 X142.22 Y63.135 E1.14563
G1 X141.685 Y63.135 E.01679
G1 X168.002 Y89.452 E1.16937
G1 X168.002 Y89.986 E.01679
G1 X141.151 Y63.135 E1.19312
G1 X140.617 Y63.135 E.01679
G1 X168.002 Y90.52 E1.21686
G1 X168.002 Y91.055 E.01679
G1 X140.082 Y63.135 E1.24061
G1 X139.548 Y63.135 E.01679
G1 X168.002 Y91.589 E1.26435
G1 X168.002 Y92.124 E.01679
G1 X139.013 Y63.135 E1.2881
G1 X138.479 Y63.135 E.01679
G1 X168.002 Y92.658 E1.31185
G1 X168.002 Y93.192 E.01679
G1 X137.945 Y63.135 E1.33559
G1 X137.41 Y63.135 E.01679
M73 P2 R130
G1 X168.002 Y93.727 E1.35934
G1 X168.002 Y94.261 E.01679
G1 X136.876 Y63.135 E1.38308
G1 X136.341 Y63.135 E.01679
M73 P2 R129
G1 X168.002 Y94.795 E1.40683
G1 X168.002 Y95.33 E.01679
G1 X135.807 Y63.135 E1.43057
G1 X135.273 Y63.135 E.01679
G1 X168.002 Y95.864 E1.45432
G1 X168.002 Y96.399 E.01679
G1 X134.738 Y63.135 E1.47806
G1 X134.204 Y63.135 E.01679
G1 X168.002 Y96.933 E1.50181
G1 X168.002 Y97.467 E.01679
G1 X133.67 Y63.135 E1.52555
G1 X133.135 Y63.135 E.01679
G1 X168.002 Y98.002 E1.5493
G1 X168.002 Y98.536 E.01679
G1 X132.601 Y63.135 E1.57304
G1 X132.066 Y63.135 E.01679
G1 X168.002 Y99.071 E1.59679
G1 X168.002 Y99.605 E.01679
G1 X131.532 Y63.135 E1.62054
G1 X130.998 Y63.135 E.01679
G1 X168.002 Y100.139 E1.64428
G1 X168.002 Y100.674 E.01679
G1 X130.463 Y63.135 E1.66803
G1 X129.929 Y63.135 E.01679
G1 X168.002 Y101.208 E1.69177
G1 X168.002 Y101.743 E.01679
G1 X129.394 Y63.135 E1.71552
G1 X128.86 Y63.135 E.01679
G1 X168.002 Y102.277 E1.73926
G1 X168.002 Y102.811 E.01679
G1 X128.326 Y63.135 E1.76301
G1 X127.791 Y63.135 E.01679
G1 X168.002 Y103.346 E1.78675
G1 X168.002 Y103.88 E.01679
G1 X127.257 Y63.135 E1.8105
G1 X126.722 Y63.135 E.01679
G1 X168.002 Y104.414 E1.83424
G1 X168.002 Y104.949 E.01679
G1 X126.188 Y63.135 E1.85799
G1 X125.654 Y63.135 E.01679
G1 X168.002 Y105.483 E1.88173
G1 X168.002 Y106.018 E.01679
G1 X125.119 Y63.135 E1.90548
G1 X124.585 Y63.135 E.01679
G1 X168.002 Y106.552 E1.92922
G1 X168.002 Y107.086 E.01679
M73 P2 R128
G1 X124.05 Y63.135 E1.95297
G1 X123.516 Y63.135 E.01679
G1 X168.002 Y107.621 E1.97672
G1 X168.002 Y108.155 E.01679
G1 X122.982 Y63.135 E2.00046
G1 X122.447 Y63.135 E.01679
G1 X168.002 Y108.69 E2.02421
G1 X168.002 Y109.224 E.01679
M73 P3 R128
G1 X121.913 Y63.135 E2.04795
G1 X121.379 Y63.135 E.01679
G1 X168.002 Y109.758 E2.0717
G1 X168.002 Y110.293 E.01679
G1 X120.844 Y63.135 E2.09544
G1 X120.31 Y63.135 E.01679
G1 X168.002 Y110.827 E2.11919
G1 X168.002 Y111.361 E.01679
G1 X119.775 Y63.135 E2.14293
G1 X119.241 Y63.135 E.01679
G1 X168.002 Y111.896 E2.16668
G1 X168.002 Y112.43 E.01679
G1 X118.707 Y63.135 E2.19042
G1 X118.172 Y63.135 E.01679
G1 X168.002 Y112.965 E2.21417
G1 X168.002 Y113.499 E.01679
G1 X117.638 Y63.135 E2.23791
G1 X117.103 Y63.135 E.01679
G1 X168.002 Y114.033 E2.26166
G1 X168.002 Y114.568 E.01679
G1 X116.569 Y63.135 E2.2854
G1 X116.035 Y63.135 E.01679
G1 X168.002 Y115.102 E2.30915
G1 X168.002 Y115.637 E.01679
G1 X115.5 Y63.135 E2.3329
G1 X114.966 Y63.135 E.01679
M73 P3 R127
G1 X168.002 Y116.171 E2.35664
G1 X168.002 Y116.705 E.01679
G1 X114.431 Y63.135 E2.38039
G1 X113.897 Y63.134 E.01679
G1 X168.002 Y117.24 E2.40413
G1 X168.002 Y117.774 E.01679
G1 X113.363 Y63.134 E2.42788
G1 X112.828 Y63.134 E.01679
G1 X168.002 Y118.308 E2.45162
G1 X168.002 Y118.843 E.01679
G1 X112.294 Y63.134 E2.47537
G1 X111.759 Y63.134 E.01679
G1 X168.002 Y119.377 E2.49911
G1 X168.002 Y119.912 E.01679
G1 X111.225 Y63.134 E2.52286
G1 X110.691 Y63.134 E.01679
G1 X168.002 Y120.446 E2.5466
G1 X168.002 Y120.98 E.01679
M73 P4 R127
G1 X110.156 Y63.134 E2.57035
G1 X109.622 Y63.134 E.01679
G1 X168.002 Y121.515 E2.59409
G1 X168.002 Y122.049 E.01679
G1 X109.088 Y63.134 E2.61784
G1 X108.553 Y63.134 E.01679
G1 X168.002 Y122.584 E2.64158
G1 X168.002 Y123.118 E.01679
G1 X108.019 Y63.134 E2.66533
G1 X107.484 Y63.134 E.01679
G1 X168.002 Y123.652 E2.68908
G1 X168.002 Y124.187 E.01679
M73 P4 R126
G1 X106.95 Y63.134 E2.71282
G1 X106.416 Y63.134 E.01679
G1 X168.002 Y124.721 E2.73657
G1 X168.002 Y125.255 E.01679
G1 X105.881 Y63.134 E2.76031
G1 X105.347 Y63.134 E.01679
G1 X168.002 Y125.79 E2.78406
G1 X168.002 Y126.324 E.01679
G1 X104.812 Y63.134 E2.8078
G1 X104.278 Y63.134 E.01679
G1 X168.002 Y126.859 E2.83155
G1 X168.002 Y127.393 E.01679
G1 X103.744 Y63.134 E2.85529
G1 X103.209 Y63.134 E.01679
G1 X168.002 Y127.927 E2.87904
G1 X168.002 Y128.462 E.01679
G1 X102.675 Y63.134 E2.90278
G1 X102.14 Y63.134 E.01679
G1 X168.002 Y128.996 E2.92653
G1 X168.002 Y129.531 E.01679
G1 X101.606 Y63.134 E2.95027
G1 X101.072 Y63.134 E.01679
G1 X168.002 Y130.065 E2.97402
G1 X168.002 Y130.599 E.01679
M73 P5 R126
G1 X100.537 Y63.134 E2.99776
G1 X100.003 Y63.134 E.01679
M73 P5 R125
G1 X168.002 Y131.134 E3.02151
G1 X168.002 Y131.668 E.01679
G1 X99.468 Y63.134 E3.04526
G1 X98.934 Y63.134 E.01679
G1 X168.002 Y132.203 E3.069
G1 X168.002 Y132.737 E.01679
G1 X98.4 Y63.134 E3.09275
G1 X97.865 Y63.134 E.01679
G1 X168.002 Y133.271 E3.11649
G1 X168.002 Y133.806 E.01679
G1 X97.331 Y63.134 E3.14024
G1 X96.797 Y63.134 E.01679
G1 X168.002 Y134.34 E3.16398
G1 X168.002 Y134.874 E.01679
G1 X96.262 Y63.134 E3.18773
G1 X95.728 Y63.134 E.01679
G1 X168.002 Y135.409 E3.21147
G1 X168.002 Y135.943 E.01679
G1 X95.193 Y63.134 E3.23522
G1 X94.659 Y63.134 E.01679
G1 X168.002 Y136.478 E3.25896
G1 X168.002 Y137.012 E.01679
G1 X94.125 Y63.134 E3.28271
G1 X93.59 Y63.134 E.01679
M73 P5 R124
G1 X168.002 Y137.546 E3.30645
G1 X168.002 Y138.081 E.01679
G1 X93.056 Y63.134 E3.3302
G1 X92.521 Y63.134 E.01679
G1 X168.002 Y138.615 E3.35394
G1 X168.002 Y139.15 E.01679
M73 P6 R124
G1 X91.987 Y63.134 E3.37769
G1 X91.453 Y63.134 E.01679
G1 X168.002 Y139.684 E3.40144
G1 X168.002 Y140.218 E.01679
G1 X90.918 Y63.134 E3.42518
G1 X90.384 Y63.134 E.01679
G1 X168.002 Y140.753 E3.44893
G1 X168.002 Y141.287 E.01679
G1 X89.849 Y63.134 E3.47267
G1 X89.315 Y63.134 E.01679
G1 X168.002 Y141.821 E3.49642
G1 X168.002 Y142.356 E.01679
G1 X88.781 Y63.134 E3.52016
G1 X88.246 Y63.134 E.01679
G1 X168.002 Y142.89 E3.54391
G1 X168.002 Y143.425 E.01679
M73 P6 R123
G1 X87.712 Y63.134 E3.56765
G1 X87.177 Y63.134 E.01679
G1 X168.002 Y143.959 E3.5914
G1 X168.002 Y144.493 E.01679
G1 X86.643 Y63.134 E3.61514
G1 X86.109 Y63.134 E.01679
G1 X168.002 Y145.028 E3.63889
G1 X168.002 Y145.562 E.01679
G1 X85.574 Y63.134 E3.66263
G1 X85.04 Y63.134 E.01679
G1 X167.95 Y146.044 E3.68406
G1 X167.856 Y146.281 E.008
M73 P7 R123
G1 X167.771 Y146.399 E.00459
G1 X84.506 Y63.134 E3.69983
G1 X83.971 Y63.134 E.01679
G1 X167.502 Y146.665 E3.71164
G1 X167.219 Y146.808 E.00996
G1 X167.128 Y146.826 E.00291
G1 X83.437 Y63.134 E3.71878
G1 X82.902 Y63.134 E.01679
G1 X166.634 Y146.866 E3.72058
G1 X166.1 Y146.866 E.01679
M73 P7 R122
G1 X82.368 Y63.134 E3.72058
G1 X81.834 Y63.134 E.01679
G1 X165.566 Y146.866 E3.72058
G1 X165.031 Y146.866 E.01679
G1 X81.299 Y63.134 E3.72058
G1 X80.765 Y63.134 E.01679
G1 X164.497 Y146.866 E3.72058
G1 X163.962 Y146.866 E.01679
G1 X80.23 Y63.134 E3.72058
G1 X79.696 Y63.134 E.01679
G1 X163.428 Y146.866 E3.72058
G1 X162.894 Y146.866 E.01679
G1 X79.162 Y63.134 E3.72058
G1 X78.627 Y63.134 E.01679
G1 X162.359 Y146.866 E3.72058
G1 X161.825 Y146.866 E.01679
G1 X78.093 Y63.134 E3.72058
G1 X77.558 Y63.134 E.01679
M73 P8 R122
G1 X161.29 Y146.866 E3.72058
G1 X160.756 Y146.866 E.01679
M73 P8 R121
G1 X77.024 Y63.134 E3.72058
G1 X76.49 Y63.134 E.01679
G1 X160.222 Y146.866 E3.72058
G1 X159.687 Y146.866 E.01679
G1 X75.955 Y63.134 E3.72058
G1 X75.421 Y63.134 E.01679
G1 X159.153 Y146.866 E3.72058
G1 X158.619 Y146.866 E.01679
G1 X74.886 Y63.134 E3.72058
G1 X74.352 Y63.134 E.01679
G1 X158.084 Y146.866 E3.72058
G1 X157.55 Y146.866 E.01679
G1 X73.818 Y63.134 E3.72058
G1 X73.283 Y63.134 E.01679
G1 X157.015 Y146.866 E3.72058
G1 X156.481 Y146.866 E.01679
G1 X72.749 Y63.134 E3.72058
G1 X72.215 Y63.134 E.01679
G1 X155.947 Y146.866 E3.72058
G1 X155.412 Y146.866 E.01679
M73 P8 R120
G1 X71.68 Y63.134 E3.72058
G1 X71.146 Y63.134 E.01679
G1 X154.878 Y146.866 E3.72058
G1 X154.343 Y146.866 E.01679
G1 X70.611 Y63.134 E3.72058
G1 X70.077 Y63.134 E.01679
M73 P9 R120
G1 X153.809 Y146.866 E3.72058
G1 X153.275 Y146.866 E.01679
G1 X69.543 Y63.134 E3.72058
G1 X69.008 Y63.134 E.01679
G1 X152.74 Y146.866 E3.72058
G1 X152.206 Y146.866 E.01679
G1 X68.474 Y63.134 E3.72058
G1 X67.939 Y63.134 E.01679
G1 X151.672 Y146.866 E3.72058
G1 X151.137 Y146.866 E.01679
G1 X67.405 Y63.134 E3.72058
G1 X66.871 Y63.134 E.01679
G1 X150.603 Y146.866 E3.72059
G1 X150.068 Y146.866 E.01679
G1 X66.336 Y63.134 E3.72059
G1 X65.802 Y63.134 E.01679
M73 P9 R119
G1 X149.534 Y146.866 E3.72059
G1 X149 Y146.866 E.01679
G1 X65.267 Y63.134 E3.72059
G1 X64.733 Y63.134 E.01679
G1 X148.465 Y146.866 E3.72059
G1 X147.931 Y146.866 E.01679
G1 X64.199 Y63.134 E3.72059
G1 X63.664 Y63.134 E.01679
G1 X147.396 Y146.866 E3.72059
G1 X146.862 Y146.866 E.01679
M73 P10 R119
G1 X63.13 Y63.134 E3.72059
G1 X62.595 Y63.134 E.01679
G1 X146.328 Y146.866 E3.72059
G1 X145.793 Y146.866 E.01679
G1 X62.061 Y63.134 E3.72059
G1 X61.527 Y63.134 E.01679
G1 X145.259 Y146.866 E3.72059
G1 X144.724 Y146.866 E.01679
G1 X60.992 Y63.134 E3.72059
G1 X60.458 Y63.134 E.01679
M73 P10 R118
G1 X144.19 Y146.866 E3.72059
